src/assets/img/telegram.svg

<svg width="25" height="25" viewBox="0 0 25 25" fill="none" xmlns="http://www.w3.org/2000/svg">
<g clip-path="url(#clip0_6025_25424)">
<path d="M12.5 0C9.18555 0 6.00391 1.31777 3.66211 3.66113C1.31791 6.00543 0.000670798 9.18473 0 12.5C0 15.8139 1.31836 18.9955 3.66211 21.3389C6.00391 23.6822 9.18555 25 12.5 25C15.8145 25 18.9961 23.6822 21.3379 21.3389C23.6816 18.9955 25 15.8139 25 12.5C25 9.18613 23.6816 6.00449 21.3379 3.66113C18.9961 1.31777 15.8145 0 12.5 0Z" fill="url(#paint0_linear_6025_25424)"/>
<path d="M5.65813 12.368C9.30266 10.7805 11.7323 9.73393 12.9472 9.2282C16.4199 7.78425 17.1406 7.53347 17.6113 7.52498C17.7148 7.52332 17.9452 7.5489 18.0956 7.67048C18.2206 7.77302 18.2558 7.9117 18.2734 8.00906C18.289 8.10632 18.3105 8.328 18.2929 8.50105C18.1054 10.4776 17.2909 15.2741 16.8769 17.488C16.7031 18.4247 16.3573 18.7387 16.0234 18.7694C15.2968 18.8362 14.746 18.2897 14.0429 17.829C12.9433 17.1077 12.3222 16.6589 11.2538 15.9552C10.0195 15.1419 10.8202 14.6948 11.5234 13.9643C11.707 13.7731 14.9062 10.8639 14.9667 10.6001C14.9745 10.5671 14.9824 10.444 14.9081 10.3792C14.8359 10.3141 14.7284 10.3364 14.6503 10.354C14.539 10.379 12.7831 11.5407 9.37688 13.8389C8.87883 14.1815 8.42766 14.3485 8.02141 14.3397C7.5761 14.3302 6.71672 14.0874 6.07805 13.88C5.2968 13.6255 4.67375 13.4909 4.72844 13.0587C4.75579 12.8337 5.06633 12.6034 5.65813 12.368Z" fill="white"/>
</g>
<defs>
<linearGradient id="paint0_linear_6025_25424" x1="1250" y1="0" x2="1250" y2="2500" gradientUnits="userSpaceOnUse">
<stop stop-color="#2AABEE"/>
<stop offset="1" stop-color="#229ED9"/>
</linearGradient>
<clipPath id="clip0_6025_25424">
<rect width="25" height="25" fill="white"/>
</clipPath>
</defs>
</svg>

<svg xmlns="http://www.w3.org/2000/svg" width="25" height="25" fill="none"><g clip-path="url(#a)"><path fill="url(#b)" d="M12.5 0a12.498 12.498 0 0 0-8.838 21.339A12.499 12.499 0 1 0 21.338 3.66 12.498 12.498 0 0 0 12.5 0Z"/><path fill="#fff" d="M5.658 12.368c3.645-1.588 6.074-2.634 7.29-3.14 3.472-1.444 4.193-1.695 4.663-1.703.104-.002.334.024.485.145.125.103.16.242.177.34.016.096.038.318.02.491-.188 1.977-1.002 6.773-1.416 8.987-.174.937-.52 1.25-.854 1.281-.726.067-1.277-.48-1.98-.94-1.1-.721-1.72-1.17-2.79-1.874-1.233-.813-.433-1.26.27-1.99.184-.192 3.383-3.101 3.444-3.365.008-.033.015-.156-.059-.22-.072-.066-.18-.044-.258-.026-.111.025-1.867 1.187-5.273 3.485-.498.342-.95.51-1.356.5-.445-.009-1.304-.252-1.943-.459-.781-.255-1.404-.39-1.35-.821.028-.225.338-.456.93-.691Z"/></g><defs><linearGradient id="b" x1="1250" x2="1250" y1="0" y2="2500" gradientUnits="userSpaceOnUse"><stop stop-color="#2AABEE"/><stop offset="1" stop-color="#229ED9"/></linearGradient><clipPath id="a"><path fill="#fff" d="M0 0h25v25H0z"/></clipPath></defs></svg>
